X: 30802
T: Other High, The
R: reel
M: 4/4
K: Gdorian
DGGFD2GA|~B2dBcBAB|DGBdcBAB|~G2AGGFDC|
DGGFD2GA|~B2dBcBAB|~G2FGDEFG|G,A,CDA,G,G,2:|
A~c3AGAc|dggf~d2ga|bgafgfdc|dggf~d2ga|
bgafgfdc|~d3ef2fg|~a3gfdcA|GAcdAGGF:|

